!!!SOCIAL_FUNCTION:	songs used in treatment of the sick
!!!PDT:	1918

Specific Region: Dakotas, Minnesota, Montana, Nebraska
!!!REG: Dakotas and Montana
!!!LING_GROUP: Siouan
!!!LANG: Tone
!!!OTL@ENG: You Will Walk
!!!ONM: No. 85
**kern
*Imale
*clefF4
*k[b-e-a-d-]
*M2/4
*MM72
8e-
8e-
4e-
=2
8e-
8B-
4B-
=3
8c
8c
8c
16c
16B-
=4
4.B-
16B-
16B-
=5
4B-
16A-
[8.A-
=6
4.A-]
16A-
16A-
=7
4A-
16B-
16B-
16B-
16B-
=8
4A-
8E-
8D-
=9
2E-
=10
12c
12c
12c
4c
=11
8e-
8c
8B-
8B-
=12
(16B-
16c)
8B-
8B-
8B-
=13||
*M3/4
16A-
8.A-
8A-
[8A-
8A-]
16A-
16A-
=14||
*M2/4
4A-
16B-
16B-
16B-
16B-
=15
4A-
8E-
8D-
=16
2E-
==
*-
!!!CNT: Native American -- Sioux
!!!MRD: 1911/07//-1914///
!!!OCL: Frances Densmore
!!!YOR1: Teton Sioux Music, Bulletin 61,
!!!YOR2: Bureau of American Ethnology, Smithsonian Institution
!!!PPR: Government Printing Office
!!!PPP: Washington, D.C.
!!!PDT: 1918///
!!!ENC: Craig Stuart Sapp
!!!END: 2002/03/25/
!!!EEV: 2002/03/31/
!!!AGN: Song of Personal Dreams/Song Used in Treatment of the Sick
!!!MPN@@SIO: Wangbli'-waha'chungka
!!!MPN@ENG: Eagle Shield
!!!TXO: Teton Sioux
!!!MLC: Standing Rock Reservation, South Dakota, United States of America
!!!ARL: 45.9/-100.7#
!!!catalog: Catalogue No. 514
!!!PPG: 260
!!!EFL: 85/245
!!!VTS: 1494666450
